{
  "compressionlevel": -1,
  "width": 40,
  "height": 80,
  "tilewidth": 16,
  "tileheight": 16,
  "infinite": false,
  "orientation": "orthogonal",
  "renderorder": "right-down",
  "type": "map",
  "version": "1.10",
  "tiledversion": "1.10.2",
  "nextlayerid": 4,
  "nextobjectid": 22,
  "tilesets": [
    {
      "firstgid": 1,
      "source": "tileset.tsj"
    }
  ],
  "layers": [
    {
      "id": 1,
      "name": "ground",
      "type": "tilelayer",
      "width": 40,
      "height": 80,
      "visible": true,
      "opacity": 1,
      "x": 0,
      "y": 0,
      "data": [
        3,
        2,
        5,
        4,
        3,
        2,
        5,
        4,
        3,
        2,
        5,
        4,
        3,
        19,
        19,
        8,
        6,
        6,
        6,
        7,
        7,
        6,
        6,
        6,
        9,
        2,
        19,
        4,
        3,
        2,
        5,
        4,
        3,
        2,
        5,
        4,
        3,
        2,
        5,
        4,
        4,
        5,
        2,
        3,
        4,
        5,
        2,
        3,
        4,
        5,
        2,
        3,
        4,
        19,
        2,
        8,
        6,
        6,
        6,
        7,
        7,
        6,
        6,
        6,
        9,
        5,
        19,
        3,
        4,
        5,
        2,
        3,
        4,
        5,
        2,
        3,
        4,
        5,
        2,
        3,
        5,
        4,
        3,
        2,
        5,
        4,
        3,
        2,
        5,
        4,
        3,
        2,
        5,
        19,
        19,
        8,
        6,
        6,
        6,
        6,
        6,
        6,
        6,
        6,
        9,
        19,
        19,
        2,
        5,
        4,
        3,
        2,
        5,
        4,
        3,
        2,
        5,
        4,
        3,
        2,
        2,
        3,
        4,
        5,
        2,
        3,
        4,
        5,
        2,
        3,
        4,
        5,
        12,
        12,
        12,
        8,
        6,
        6,
        6,
        6,
        6,
        6,
        6,
        6,
        9,
        12,
        12,
        12,
        2,
        3,
        4,
        5,
        2,
        3,
        4,
        5,
        2,
        3,
        4,
        5,
        3,
        2,
        5,
        4,
        3,
        2,
        5,
        4,
        3,
        2,
        5,
        4,
        12,
        12,
        12,
        8,
        6,
        6,
        6,
        7,
        7,
        6,
        6,
        6,
        9,
        12,
        12,
        12,
        3,
        2,
        5,
        4,
        3,
        2,
        5,
        4,
        3,
        2,
        5,
        4,
        4,
        5,
        2,
        3,
        4,
        5,
        2,
        3,
        4,
        5,
        2,
        3,
        12,
        12,
        12,
        8,
        6,
        6,
        6,
        7,
        7,
        6,
        6,
        6,
        9,
        12,
        12,
        12,
        4,
        5,
        2,
        3,
        4,
        5,
        2,
        3,
        4,
        5,
        2,
        3,
        5,
        4,
        3,
        2,
        5,
        4,
        3,
        2,
        5,
        4,
        3,
        2,
        12,
        12,
        12,
        8,
        6,
        6,
        6,
        6,
        6,
        6,
        6,
        6,
        9,
        12,
        12,
        12,
        5,
        4,
        3,
        2,
        5,
        4,
        3,
        2,
        5,
        4,
        3,
        2,
        2,
        3,
        4,
        5,
        2,
        3,
        4,
        5,
        2,
        3,
        4,
        5,
        12,
        12,
        12,
        8,
        6,
        6,
        6,
        6,
        6,
        6,
        6,
        6,
        9,
        12,
        12,
        12,
        2,
        3,
        4,
        5,
        2,
        3,
        4,
        5,
        2,
        3,
        4,
        5,
        3,
        2,
        5,
        4,
        3,
        2,
        5,
        4,
        3,
        2,
        5,
        4,
        12,
        12,
        12,
        8,
        6,
        6,
        6,
        7,
        7,
        6,
        6,
        6,
        9,
        12,
        12,
        12,
        3,
        2,
        5,
        4,
        3,
        2,
        5,
        4,
        3,
        2,
        5,
        4,
        4,
        5,
        2,
        3,
        4,
        5,
        2,
        3,
        4,
        5,
        2,
        3,
        12,
        12,
        12,
        8,
        6,
        6,
        6,
        7,
        7,
        6,
        6,
        6,
        9,
        12,
        12,
        12,
        4,
        5,
        2,
        3,
        4,
        5,
        2,
        3,
        4,
        5,
        2,
        3,
        5,
        4,
        3,
        2,
        5,
        4,
        3,
        2,
        5,
        4,
        3,
        2,
        12,
        12,
        12,
        8,
        6,
        6,
        6,
        6,
        6,
        6,
        6,
        6,
        9,
        12,
        12,
        12,
        5,
        4,
        3,
        2,
        5,
        4,
        3,
        2,
        5,
        4,
        3,
        2,
        2,
        3,
        4,
        5,
        2,
        3,
        4,
        5,
        2,
        3,
        4,
        5,
        12,
        12,
        12,
        8,
        6,
        6,
        6,
        6,
        6,
        6,
        6,
        6,
        9,
        12,
        12,
        12,
        2,
        3,
        4,
        5,
        2,
        3,
        4,
        5,
        2,
        3,
        4,
        5,
        3,
        2,
        5,
        4,
        3,
        2,
        5,
        4,
        3,
        2,
        5,
        4,
        12,
        12,
        12,
        8,
        6,
        6,
        6,
        7,
        7,
        6,
        6,
        6,
        9,
        13,
        13,
        13,
        13,
        13,
        13,
        13,
        13,
        13,
        13,
        13,
        13,
        13,
        13,
        13,
        4,
        5,
        2,
        3,
        4,
        5,
        2,
        3,
        4,
        5,
        2,
        3,
        12,
        12,
        12,
        8,
        6,
        6,
        6,
        7,
        7,
        6,
        6,
        6,
        9,
        14,
        14,
        14,
        14,
        14,
        14,
        14,
        14,
        14,
        14,
        14,
        14,
        14,
        14,
        14,
        5,
        4,
        3,
        2,
        5,
        4,
        3,
        2,
        5,
        4,
        3,
        2,
        12,
        12,
        12,
        8,
        6,
        6,
        6,
        6,
        6,
        6,
        6,
        6,
        9,
        12,
        12,
        12,
        5,
        4,
        3,
        2,
        5,
        4,
        3,
        2,
        5,
        4,
        3,
        2,
        2,
        3,
        4,
        5,
        2,
        3,
        4,
        5,
        2,
        3,
        4,
        5,
        12,
        12,
        12,
        8,
        6,
        6,
        6,
        6,
        6,
        6,
        6,
        6,
        9,
        12,
        12,
        12,
        2,
        3,
        4,
        5,
        2,
        3,
        4,
        5,
        2,
        3,
        4,
        5,
        3,
        2,
        5,
        4,
        3,
        2,
        5,
        4,
        3,
        2,
        5,
        4,
        3,
        2,
        5,
        8,
        6,
        6,
        6,
        7,
        7,
        6,
        6,
        6,
        9,
        2,
        5,
        4,
        3,
        2,
        5,
        4,
        3,
        2,
        5,
        4,
        3,
        2,
        5,
        4,
        4,
        5,
        2,
        3,
        4,
        5,
        2,
        3,
        4,
        5,
        2,
        3,
        4,
        5,
        2,
        8,
        6,
        6,
        6,
        7,
        7,
        6,
        6,
        6,
        9,
        5,
        19,
        3,
        4,
        5,
        2,
        3,
        4,
        5,
        2,
        3,
        4,
        5,
        2,
        3,
        5,
        4,
        3,
        2,
        5,
        4,
        3,
        2,
        5,
        4,
        3,
        2,
        5,
        4,
        3,
        8,
        6,
        6,
        6,
        6,
        6,
        6,
        6,
        6,
        9,
        4,
        19,
        2,
        5,
        4,
        3,
        2,
        5,
        4,
        3,
        2,
        5,
        4,
        3,
        2,
        2,
        3,
        4,
        5,
        2,
        3,
        4,
        5,
        2,
        3,
        4,
        5,
        2,
        3,
        4,
        8,
        6,
        6,
        6,
        6,
        6,
        6,
        6,
        6,
        9,
        19,
        4,
        5,
        2,
        3,
        4,
        5,
        2,
        3,
        4,
        5,
        2,
        3,
        4,
        5,
        3,
        2,
        5,
        4,
        3,
        2,
        5,
        4,
        3,
        2,
        5,
        4,
        3,
        2,
        19,
        8,
        6,
        6,
        6,
        7,
        7,
        6,
        6,
        6,
        9,
        2,
        5,
        4,
        3,
        2,
        5,
        4,
        3,
        2,
        5,
        4,
        3,
        2,
        5,
        4,
        4,
        5,
        2,
        3,
        4,
        5,
        2,
        3,
        4,
        5,
        2,
        3,
        4,
        5,
        2,
        8,
        6,
        6,
        6,
        7,
        7,
        6,
        6,
        6,
        9,
        5,
        19,
        3,
        4,
        5,
        2,
        3,
        4,
        5,
        2,
        3,
        4,
        5,
        2,
        3,
        5,
        4,
        3,
        2,
        5,
        4,
        3,
        2,
        5,
        4,
        3,
        2,
        5,
        4,
        3,
        8,
        6,
        6,
        6,
        6,
        6,
        6,
        6,
        6,
        9,
        4,
        3,
        2,
        5,
        4,
        3,
        2,
        5,
        4,
        3,
        2,
        5,
        4,
        3,
        2,
        2,
        3,
        4,
        5,
        2,
        3,
        4,
        5,
        2,
        3,
        4,
        5,
        2,
        3,
        4,
        8,
        6,
        6,
        6,
        6,
        6,
        6,
        6,
        6,
        9,
        19,
        4,
        5,
        2,
        3,
        4,
        5,
        2,
        3,
        4,
        5,
        2,
        3,
        4,
        5,
        3,
        2,
        5,
        4,
        3,
        2,
        5,
        4,
        3,
        2,
        5,
        4,
        3,
        19,
        5,
        8,
        6,
        6,
        6,
        7,
        7,
        6,
        6,
        6,
        9,
        19,
        5,
        4,
        3,
        2,
        5,
        4,
        3,
        2,
        5,
        4,
        3,
        2,
        5,
        4,
        4,
        5,
        2,
        3,
        4,
        5,
        2,
        3,
        4,
        5,
        2,
        3,
        4,
        5,
        2,
        8,
        6,
        6,
        6,
        7,
        7,
        6,
        6,
        6,
        9,
        5,
        19,
        3,
        4,
        5,
        2,
        3,
        4,
        5,
        2,
        3,
        4,
        5,
        2,
        3,
        5,
        4,
        3,
        2,
        5,
        4,
        3,
        2,
        5,
        4,
        3,
        2,
        5,
        4,
        3,
        8,
        6,
        6,
        6,
        6,
        6,
        6,
        6,
        6,
        9,
        19,
        3,
        2,
        5,
        4,
        3,
        2,
        5,
        4,
        3,
        2,
        5,
        4,
        3,
        2,
        2,
        3,
        4,
        5,
        2,
        3,
        4,
        5,
        2,
        3,
        4,
        5,
        2,
        19,
        4,
        8,
        6,
        6,
        6,
        6,
        6,
        6,
        6,
        6,
        9,
        3,
        4,
        5,
        2,
        3,
        4,
        5,
        2,
        3,
        4,
        5,
        2,
        3,
        4,
        5,
        3,
        2,
        5,
        4,
        3,
        2,
        5,
        4,
        3,
        2,
        5,
        4,
        3,
        19,
        5,
        8,
        6,
        6,
        6,
        7,
        7,
        6,
        6,
        6,
        9,
        19,
        5,
        4,
        3,
        2,
        5,
        4,
        3,
        2,
        5,
        4,
        3,
        2,
        5,
        4,
        4,
        5,
        2,
        3,
        4,
        5,
        2,
        3,
        4,
        5,
        2,
        3,
        4,
        19,
        2,
        8,
        6,
        6,
        6,
        7,
        7,
        6,
        6,
        6,
        9,
        5,
        2,
        3,
        4,
        5,
        2,
        3,
        4,
        5,
        2,
        3,
        4,
        5,
        2,
        3,
        5,
        4,
        3,
        2,
        5,
        4,
        3,
        2,
        5,
        4,
        3,
        2,
        5,
        19,
        3,
        8,
        6,
        6,
        6,
        6,
        6,
        6,
        6,
        6,
        9,
        4,
        19,
        2,
        5,
        4,
        3,
        2,
        5,
        4,
        3,
        2,
        5,
        4,
        3,
        2,
        2,
        3,
        4,
        5,
        2,
        3,
        4,
        5,
        2,
        3,
        4,
        5,
        2,
        19,
        4,
        8,
        6,
        6,
        6,
        6,
        6,
        6,
        6,
        6,
        9,
        19,
        4,
        5,
        2,
        3,
        4,
        5,
        2,
        3,
        4,
        5,
        2,
        3,
        4,
        5,
        3,
        2,
        5,
        4,
        3,
        2,
        5,
        4,
        3,
        2,
        5,
        4,
        3,
        2,
        5,
        8,
        6,
        6,
        6,
        7,
        7,
        6,
        6,
        6,
        9,
        19,
        19,
        4,
        3,
        2,
        5,
        4,
        3,
        2,
        5,
        4,
        3,
        2,
        5,
        4,
        4,
        5,
        2,
        3,
        4,
        5,
        2,
        3,
        4,
        5,
        2,
        3,
        4,
        5,
        2,
        8,
        6,
        6,
        6,
        7,
        7,
        6,
        6,
        6,
        9,
        5,
        2,
        3,
        4,
        5,
        2,
        3,
        4,
        5,
        2,
        3,
        4,
        5,
        2,
        3,
        5,
        4,
        3,
        2,
        5,
        4,
        3,
        2,
        5,
        4,
        3,
        2,
        5,
        4,
        3,
        8,
        6,
        6,
        6,
        6,
        6,
        6,
        6,
        6,
        9,
        19,
        3,
        2,
        5,
        4,
        3,
        2,
        5,
        4,
        3,
        2,
        5,
        4,
        3,
        2,
        2,
        3,
        4,
        5,
        2,
        3,
        4,
        5,
        2,
        3,
        4,
        5,
        2,
        3,
        19,
        8,
        6,
        6,
        6,
        6,
        6,
        6,
        6,
        6,
        9,
        19,
        19,
        5,
        2,
        3,
        4,
        5,
        2,
        3,
        4,
        5,
        2,
        3,
        4,
        5,
        3,
        2,
        5,
        4,
        3,
        2,
        5,
        4,
        3,
        2,
        5,
        4,
        3,
        19,
        5,
        8,
        6,
        6,
        6,
        7,
        7,
        6,
        6,
        6,
        9,
        2,
        19,
        4,
        3,
        2,
        5,
        4,
        3,
        2,
        5,
        4,
        3,
        2,
        5,
        4,
        4,
        5,
        2,
        3,
        4,
        5,
        2,
        3,
        4,
        5,
        2,
        3,
        4,
        5,
        2,
        8,
        6,
        6,
        6,
        7,
        7,
        6,
        6,
        6,
        9,
        5,
        2,
        3,
        4,
        5,
        2,
        3,
        4,
        5,
        2,
        3,
        4,
        5,
        2,
        3,
        5,
        4,
        3,
        2,
        5,
        4,
        3,
        2,
        5,
        4,
        3,
        2,
        5,
        19,
        19,
        8,
        6,
        6,
        6,
        6,
        6,
        6,
        6,
        6,
        9,
        19,
        3,
        2,
        5,
        4,
        3,
        2,
        5,
        4,
        3,
        2,
        5,
        4,
        3,
        2,
        2,
        3,
        4,
        5,
        2,
        3,
        4,
        5,
        2,
        3,
        4,
        5,
        2,
        3,
        4,
        8,
        6,
        6,
        6,
        6,
        6,
        6,
        6,
        6,
        9,
        3,
        4,
        5,
        2,
        3,
        4,
        5,
        2,
        3,
        4,
        5,
        2,
        3,
        4,
        5,
        3,
        2,
        5,
        4,
        3,
        2,
        5,
        4,
        3,
        2,
        5,
        4,
        3,
        19,
        5,
        8,
        6,
        6,
        6,
        7,
        7,
        6,
        6,
        6,
        9,
        2,
        5,
        4,
        3,
        2,
        5,
        4,
        3,
        2,
        5,
        4,
        3,
        2,
        5,
        4,
        4,
        5,
        2,
        3,
        4,
        5,
        2,
        3,
        4,
        5,
        2,
        3,
        4,
        5,
        19,
        8,
        6,
        6,
        6,
        7,
        7,
        6,
        6,
        6,
        9,
        5,
        2,
        3,
        4,
        5,
        2,
        3,
        4,
        5,
        2,
        3,
        4,
        5,
        2,
        3,
        5,
        4,
        3,
        2,
        5,
        4,
        3,
        2,
        5,
        4,
        3,
        2,
        5,
        4,
        3,
        8,
        6,
        6,
        6,
        6,
        6,
        6,
        6,
        6,
        9,
        4,
        19,
        2,
        5,
        4,
        3,
        2,
        5,
        4,
        3,
        2,
        5,
        4,
        3,
        2,
        2,
        3,
        4,
        5,
        2,
        3,
        4,
        5,
        2,
        3,
        4,
        5,
        2,
        19,
        4,
        8,
        6,
        6,
        6,
        6,
        6,
        6,
        6,
        6,
        9,
        3,
        4,
        5,
        2,
        3,
        4,
        5,
        2,
        3,
        4,
        5,
        2,
        3,
        4,
        5,
        3,
        2,
        5,
        4,
        3,
        2,
        5,
        4,
        3,
        2,
        5,
        4,
        3,
        2,
        5,
        8,
        6,
        6,
        6,
        7,
        7,
        6,
        6,
        6,
        9,
        2,
        5,
        4,
        3,
        2,
        5,
        4,
        3,
        2,
        5,
        4,
        3,
        2,
        5,
        4,
        4,
        5,
        2,
        3,
        4,
        5,
        2,
        3,
        4,
        5,
        2,
        3,
        4,
        19,
        2,
        8,
        6,
        6,
        6,
        7,
        7,
        6,
        6,
        6,
        9,
        5,
        2,
        3,
        4,
        5,
        2,
        3,
        4,
        5,
        2,
        3,
        4,
        5,
        2,
        3,
        5,
        4,
        3,
        2,
        5,
        4,
        3,
        2,
        5,
        4,
        3,
        2,
        5,
        19,
        3,
        8,
        6,
        6,
        6,
        6,
        6,
        6,
        6,
        6,
        9,
        4,
        3,
        2,
        5,
        4,
        3,
        2,
        5,
        4,
        3,
        2,
        5,
        4,
        3,
        2,
        2,
        3,
        4,
        5,
        2,
        3,
        4,
        5,
        2,
        3,
        4,
        5,
        2,
        19,
        4,
        8,
        6,
        6,
        6,
        6,
        6,
        6,
        6,
        6,
        9,
        19,
        19,
        5,
        2,
        3,
        4,
        5,
        2,
        3,
        4,
        5,
        2,
        3,
        4,
        5,
        3,
        2,
        5,
        4,
        3,
        2,
        5,
        4,
        3,
        2,
        5,
        4,
        3,
        19,
        5,
        8,
        6,
        6,
        6,
        7,
        7,
        6,
        6,
        6,
        9,
        19,
        5,
        4,
        3,
        2,
        5,
        4,
        3,
        2,
        5,
        4,
        3,
        2,
        5,
        4,
        4,
        5,
        2,
        3,
        4,
        5,
        2,
        3,
        4,
        5,
        2,
        3,
        4,
        19,
        2,
        8,
        6,
        6,
        6,
        7,
        7,
        6,
        6,
        6,
        9,
        5,
        2,
        3,
        4,
        5,
        2,
        3,
        4,
        5,
        2,
        3,
        4,
        5,
        2,
        3,
        5,
        4,
        3,
        2,
        5,
        4,
        3,
        2,
        5,
        4,
        3,
        2,
        5,
        4,
        19,
        8,
        6,
        6,
        6,
        6,
        6,
        6,
        6,
        6,
        9,
        4,
        3,
        2,
        5,
        4,
        3,
        2,
        5,
        4,
        3,
        2,
        5,
        4,
        3,
        2,
        2,
        3,
        4,
        5,
        2,
        3,
        4,
        5,
        2,
        3,
        4,
        5,
        2,
        3,
        4,
        8,
        6,
        6,
        6,
        6,
        6,
        6,
        6,
        6,
        9,
        3,
        4,
        5,
        2,
        3,
        4,
        5,
        2,
        3,
        4,
        5,
        2,
        3,
        4,
        5,
        3,
        2,
        5,
        4,
        3,
        2,
        5,
        4,
        3,
        2,
        5,
        4,
        3,
        2,
        5,
        8,
        6,
        6,
        6,
        7,
        7,
        6,
        6,
        6,
        9,
        19,
        5,
        4,
        3,
        2,
        5,
        4,
        3,
        2,
        5,
        4,
        3,
        2,
        5,
        4,
        4,
        5,
        2,
        3,
        4,
        5,
        2,
        3,
        4,
        5,
        2,
        3,
        4,
        19,
        19,
        8,
        6,
        6,
        6,
        7,
        7,
        6,
        6,
        6,
        9,
        5,
        19,
        3,
        4,
        5,
        2,
        3,
        4,
        5,
        2,
        3,
        4,
        5,
        2,
        3,
        5,
        4,
        3,
        2,
        5,
        4,
        3,
        2,
        5,
        4,
        3,
        2,
        5,
        4,
        3,
        8,
        6,
        6,
        6,
        6,
        6,
        6,
        6,
        6,
        9,
        19,
        3,
        2,
        5,
        4,
        3,
        2,
        5,
        4,
        3,
        2,
        5,
        4,
        3,
        2,
        2,
        3,
        4,
        5,
        2,
        3,
        4,
        5,
        2,
        3,
        4,
        5,
        2,
        3,
        4,
        8,
        6,
        6,
        6,
        6,
        6,
        6,
        6,
        6,
        9,
        19,
        4,
        5,
        2,
        3,
        4,
        5,
        2,
        3,
        4,
        5,
        2,
        3,
        4,
        5,
        3,
        2,
        5,
        4,
        3,
        2,
        5,
        4,
        3,
        2,
        5,
        4,
        3,
        2,
        19,
        8,
        6,
        6,
        6,
        7,
        7,
        6,
        6,
        6,
        9,
        2,
        5,
        4,
        3,
        2,
        5,
        4,
        3,
        2,
        5,
        4,
        3,
        2,
        5,
        4,
        4,
        5,
        2,
        3,
        4,
        5,
        2,
        3,
        4,
        5,
        2,
        3,
        4,
        5,
        2,
        8,
        6,
        6,
        6,
        7,
        7,
        6,
        6,
        6,
        9,
        5,
        19,
        3,
        4,
        5,
        2,
        3,
        4,
        5,
        2,
        3,
        4,
        5,
        2,
        3,
        5,
        4,
        3,
        2,
        5,
        4,
        3,
        2,
        5,
        4,
        3,
        2,
        5,
        4,
        3,
        8,
        6,
        6,
        6,
        6,
        6,
        6,
        6,
        6,
        9,
        19,
        19,
        2,
        5,
        4,
        3,
        2,
        5,
        4,
        3,
        2,
        5,
        4,
        3,
        2,
        2,
        3,
        4,
        5,
        2,
        3,
        4,
        5,
        2,
        3,
        4,
        5,
        2,
        19,
        4,
        8,
        6,
        6,
        6,
        6,
        6,
        6,
        6,
        6,
        9,
        3,
        4,
        5,
        2,
        3,
        4,
        5,
        2,
        3,
        4,
        5,
        2,
        3,
        4,
        5,
        3,
        2,
        5,
        4,
        3,
        2,
        5,
        4,
        3,
        2,
        5,
        4,
        3,
        2,
        19,
        8,
        6,
        6,
        6,
        7,
        7,
        6,
        6,
        6,
        9,
        2,
        5,
        4,
        3,
        2,
        5,
        4,
        3,
        2,
        5,
        4,
        3,
        2,
        5,
        4,
        4,
        5,
        2,
        3,
        4,
        5,
        2,
        3,
        4,
        5,
        2,
        3,
        4,
        5,
        2,
        8,
        6,
        6,
        6,
        7,
        7,
        6,
        6,
        6,
        9,
        5,
        19,
        3,
        4,
        5,
        2,
        3,
        4,
        5,
        2,
        3,
        4,
        5,
        2,
        3,
        5,
        4,
        3,
        2,
        5,
        4,
        3,
        2,
        5,
        4,
        3,
        2,
        5,
        4,
        3,
        8,
        6,
        6,
        6,
        6,
        6,
        6,
        6,
        6,
        9,
        4,
        3,
        2,
        5,
        4,
        3,
        2,
        5,
        4,
        3,
        2,
        5,
        4,
        3,
        2,
        2,
        3,
        4,
        5,
        2,
        3,
        4,
        5,
        2,
        3,
        4,
        5,
        2,
        3,
        4,
        8,
        6,
        6,
        6,
        6,
        6,
        6,
        6,
        6,
        9,
        19,
        4,
        5,
        2,
        3,
        4,
        5,
        2,
        3,
        4,
        5,
        2,
        3,
        4,
        5,
        3,
        2,
        5,
        4,
        3,
        2,
        5,
        4,
        3,
        2,
        5,
        4,
        3,
        2,
        5,
        8,
        6,
        6,
        6,
        7,
        7,
        6,
        6,
        6,
        9,
        2,
        5,
        4,
        3,
        2,
        5,
        4,
        3,
        2,
        5,
        4,
        3,
        2,
        5,
        4,
        4,
        5,
        2,
        3,
        4,
        5,
        2,
        3,
        4,
        5,
        2,
        3,
        4,
        19,
        2,
        8,
        6,
        6,
        6,
        7,
        7,
        6,
        6,
        6,
        9,
        5,
        2,
        3,
        4,
        5,
        2,
        3,
        4,
        5,
        2,
        3,
        4,
        5,
        2,
        3,
        5,
        4,
        3,
        2,
        5,
        4,
        3,
        2,
        5,
        4,
        3,
        2,
        5,
        4,
        19,
        8,
        6,
        6,
        6,
        6,
        6,
        6,
        6,
        6,
        9,
        19,
        3,
        2,
        5,
        4,
        3,
        2,
        5,
        4,
        3,
        2,
        5,
        4,
        3,
        2,
        2,
        3,
        4,
        5,
        2,
        3,
        4,
        5,
        2,
        3,
        4,
        5,
        2,
        19,
        4,
        8,
        6,
        6,
        6,
        6,
        6,
        6,
        6,
        6,
        9,
        3,
        19,
        5,
        2,
        3,
        4,
        5,
        2,
        3,
        4,
        5,
        2,
        3,
        4,
        5,
        3,
        2,
        5,
        4,
        3,
        2,
        5,
        4,
        3,
        2,
        5,
        4,
        3,
        19,
        5,
        8,
        6,
        6,
        6,
        7,
        7,
        6,
        6,
        6,
        9,
        2,
        5,
        4,
        3,
        2,
        5,
        4,
        3,
        2,
        5,
        4,
        3,
        2,
        5,
        4,
        4,
        5,
        2,
        3,
        4,
        5,
        2,
        3,
        4,
        5,
        2,
        3,
        4,
        5,
        19,
        8,
        6,
        6,
        6,
        7,
        7,
        6,
        6,
        6,
        9,
        5,
        2,
        3,
        4,
        5,
        2,
        3,
        4,
        5,
        2,
        3,
        4,
        5,
        2,
        3,
        5,
        4,
        3,
        2,
        5,
        4,
        3,
        2,
        5,
        4,
        3,
        2,
        5,
        4,
        3,
        8,
        6,
        6,
        6,
        6,
        6,
        6,
        6,
        6,
        9,
        19,
        19,
        2,
        5,
        4,
        3,
        2,
        5,
        4,
        3,
        2,
        5,
        4,
        3,
        2,
        2,
        3,
        4,
        5,
        2,
        3,
        4,
        5,
        2,
        3,
        4,
        5,
        2,
        3,
        4,
        8,
        6,
        6,
        6,
        6,
        6,
        6,
        6,
        6,
        9,
        3,
        19,
        5,
        2,
        3,
        4,
        5,
        2,
        3,
        4,
        5,
        2,
        3,
        4,
        5,
        3,
        2,
        5,
        4,
        3,
        2,
        5,
        4,
        3,
        2,
        5,
        4,
        3,
        2,
        19,
        8,
        6,
        6,
        6,
        7,
        7,
        6,
        6,
        6,
        9,
        2,
        5,
        4,
        3,
        2,
        5,
        4,
        3,
        2,
        5,
        4,
        3,
        2,
        5,
        4,
        4,
        5,
        2,
        3,
        4,
        5,
        2,
        3,
        4,
        5,
        2,
        3,
        4,
        19,
        19,
        8,
        6,
        6,
        6,
        7,
        7,
        6,
        6,
        6,
        9,
        19,
        2,
        3,
        4,
        5,
        2,
        3,
        4,
        5,
        2,
        3,
        4,
        5,
        2,
        3,
        5,
        4,
        3,
        2,
        5,
        4,
        3,
        2,
        5,
        4,
        3,
        2,
        5,
        19,
        3,
        8,
        6,
        6,
        6,
        6,
        6,
        6,
        6,
        6,
        9,
        4,
        3,
        2,
        5,
        4,
        3,
        2,
        5,
        4,
        3,
        2,
        5,
        4,
        3,
        2,
        2,
        3,
        4,
        5,
        2,
        3,
        4,
        5,
        2,
        3,
        4,
        5,
        2,
        3,
        4,
        8,
        6,
        6,
        6,
        6,
        6,
        6,
        6,
        6,
        9,
        3,
        4,
        5,
        2,
        3,
        4,
        5,
        2,
        3,
        4,
        5,
        2,
        3,
        4,
        5,
        3,
        2,
        5,
        4,
        3,
        2,
        5,
        4,
        3,
        2,
        5,
        4,
        3,
        2,
        5,
        8,
        6,
        6,
        6,
        7,
        7,
        6,
        6,
        6,
        9,
        19,
        5,
        4,
        3,
        2,
        5,
        4,
        3,
        2,
        5,
        4,
        3,
        2,
        5,
        4,
        4,
        5,
        2,
        3,
        4,
        5,
        2,
        3,
        4,
        5,
        2,
        3,
        4,
        5,
        2,
        8,
        6,
        6,
        6,
        7,
        7,
        6,
        6,
        6,
        9,
        19,
        19,
        3,
        4,
        5,
        2,
        3,
        4,
        5,
        2,
        3,
        4,
        5,
        2,
        3,
        5,
        4,
        3,
        2,
        5,
        4,
        3,
        2,
        5,
        4,
        3,
        2,
        5,
        19,
        19,
        8,
        6,
        6,
        6,
        6,
        6,
        6,
        6,
        6,
        9,
        4,
        19,
        2,
        5,
        4,
        3,
        2,
        5,
        4,
        3,
        2,
        5,
        4,
        3,
        2,
        2,
        3,
        4,
        5,
        2,
        3,
        4,
        5,
        2,
        3,
        4,
        5,
        2,
        19,
        4,
        8,
        6,
        6,
        6,
        6,
        6,
        6,
        6,
        6,
        9,
        3,
        19,
        5,
        2,
        3,
        4,
        5,
        2,
        3,
        4,
        5,
        2,
        3,
        4,
        5
      ],
      "encoding": "csv"
    },
    {
      "id": 2,
      "name": "decal",
      "type": "tilelayer",
      "width": 40,
      "height": 80,
      "visible": true,
      "opacity": 1,
      "x": 0,
      "y": 0,
      "data": [
        0,
        0,
        0,
        0,
        0,
        0,
        0,
        0,
        0,
        0,
        0,
        0,
        0,
        0,
        0,
        0,
        0,
        0,
        0,
        0,
        0,
        0,
        0,
        0,
        0,
        0,
        0,
        0,
        0,
        0,
        0,
        0,
        0,
        0,
        0,
        0,
        0,
        0,
        0,
        0,
        0,
        0,
        0,
        0,
        0,
        0,
        0,
        0,
        0,
        0,
        0,
        0,
        0,
        0,
        0,
        0,
        0,
        0,
        0,
        0,
        0,
        0,
        11,
        0,
        0,
        0,
        0,
        0,
        0,
        0,
        0,
        0,
        0,
        0,
        0,
        0,
        0,
        0,
        0,
        0,
        0,
        0,
        0,
        0,
        0,
        0,
        0,
        0,
        0,
        0,
        0,
        0,
        0,
        0,
        0,
        0,
        0,
        0,
        0,
        0,
        0,
        0,
        11,
        0,
        0,
        0,
        0,
        0,
        0,
        0,
        0,
        0,
        0,
        0,
        0,
        0,
        0,
        0,
        0,
        0,
        0,
        0,
        0,
        0,
        0,
        0,
        0,
        0,
        0,
        0,
        0,
        0,
        0,
        0,
        0,
        0,
        0,
        0,
        0,
        0,
        0,
        0,
        0,
        0,
        0,
        0,
        0,
        0,
        0,
        0,
        0,
        0,
        0,
        0,
        0,
        0,
        0,
        0,
        0,
        0,
        0,
        0,
        0,
        0,
        0,
        0,
        0,
        0,
        0,
        0,
        0,
        0,
        0,
        0,
        0,
        0,
        0,
        0,
        0,
        0,
        0,
        0,
        0,
        0,
        0,
        0,
        0,
        0,
        0,
        0,
        0,
        0,
        0,
        0,
        0,
        0,
        0,
        0,
        0,
        0,
        0,
        0,
        0,
        0,
        0,
        0,
        0,
        0,
        0,
        0,
        0,
        0,
        0,
        0,
        0,
        0,
        0,
        0,
        0,
        0,
        0,
        0,
        0,
        0,
        0,
        0,
        0,
        0,
        0,
        0,
        0,
        0,
        0,
        0,
        0,
        0,
        0,
        0,
        0,
        0,
        0,
        0,
        0,
        0,
        0,
        0,
        0,
        0,
        0,
        0,
        0,
        0,
        0,
        0,
        0,
        0,
        0,
        0,
        0,
        0,
        0,
        0,
        0,
        0,
        0,
        0,
        0,
        0,
        0,
        0,
        0,
        0,
        0,
        0,
        0,
        0,
        0,
        0,
        0,
        0,
        0,
        0,
        0,
        0,
        0,
        0,
        0,
        0,
        0,
        0,
        0,
        0,
        0,
        0,
        0,
        0,
        0,
        0,
        0,
        0,
        0,
        0,
        0,
        0,
        0,
        0,
        0,
        0,
        0,
        0,
        0,
        0,
        0,
        0,
        0,
        0,
        0,
        0,
        0,
        0,
        0,
        0,
        0,
        0,
        0,
        0,
        0,
        0,
        0,
        0,
        0,
        0,
        0,
        0,
        0,
        0,
        0,
        0,
        0,
        0,
        0,
        0,
        0,
        0,
        0,
        0,
        0,
        0,
        0,
        0,
        0,
        0,
        0,
        0,
        0,
        0,
        0,
        0,
        0,
        0,
        0,
        0,
        0,
        0,
        0,
        0,
        0,
        0,
        0,
        0,
        0,
        0,
        0,
        0,
        0,
        0,
        0,
        0,
        0,
        0,
        0,
        0,
        0,
        0,
        0,
        0,
        0,
        0,
        0,
        0,
        0,
        0,
        0,
        0,
        0,
        0,
        0,
        0,
        0,
        0,
        0,
        0,
        0,
        0,
        0,
        0,
        0,
        0,
        0,
        0,
        0,
        0,
        0,
        0,
        0,
        0,
        0,
        0,
        0,
        0,
        0,
        0,
        0,
        11,
        0,
        0,
        0,
        0,
        0,
        0,
        0,
        0,
        0,
        0,
        0,
        0,
        0,
        0,
        0,
        0,
        0,
        0,
        0,
        0,
        0,
        0,
        0,
        0,
        0,
        0,
        0,
        0,
        0,
        0,
        0,
        0,
        0,
        0,
        0,
        0,
        0,
        0,
        0,
        0,
        0,
        0,
        0,
        0,
        0,
        0,
        0,
        0,
        0,
        0,
        0,
        0,
        0,
        0,
        0,
        0,
        0,
        0,
        0,
        0,
        0,
        0,
        0,
        0,
        0,
        0,
        0,
        0,
        0,
        0,
        0,
        0,
        15,
        15,
        15,
        15,
        15,
        15,
        15,
        0,
        0,
        0,
        0,
        0,
        0,
        0,
        0,
        0,
        0,
        0,
        0,
        0,
        0,
        0,
        0,
        0,
        0,
        0,
        0,
        0,
        0,
        0,
        0,
        0,
        0,
        0,
        0,
        0,
        0,
        0,
        0,
        0,
        15,
        15,
        15,
        15,
        15,
        15,
        15,
        0,
        0,
        0,
        0,
        0,
        0,
        0,
        0,
        0,
        0,
        0,
        0,
        0,
        0,
        0,
        0,
        0,
        0,
        0,
        0,
        0,
        0,
        0,
        0,
        0,
        0,
        0,
        0,
        0,
        0,
        0,
        0,
        0,
        15,
        15,
        15,
        15,
        15,
        15,
        15,
        0,
        0,
        0,
        0,
        0,
        0,
        0,
        0,
        0,
        0,
        0,
        0,
        0,
        0,
        0,
        0,
        0,
        0,
        0,
        0,
        0,
        0,
        0,
        0,
        0,
        0,
        0,
        0,
        0,
        0,
        0,
        0,
        0,
        0,
        0,
        0,
        0,
        0,
        0,
        0,
        0,
        0,
        0,
        0,
        0,
        0,
        0,
        0,
        0,
        0,
        0,
        0,
        0,
        0,
        0,
        0,
        0,
        0,
        0,
        0,
        0,
        0,
        0,
        0,
        0,
        0,
        0,
        0,
        0,
        0,
        0,
        0,
        0,
        0,
        0,
        0,
        0,
        0,
        0,
        0,
        0,
        0,
        0,
        0,
        0,
        0,
        0,
        0,
        0,
        0,
        0,
        0,
        0,
        0,
        0,
        0,
        0,
        0,
        0,
        0,
        0,
        0,
        0,
        0,
        0,
        0,
        0,
        0,
        0,
        0,
        0,
        0,
        0,
        0,
        0,
        0,
        0,
        0,
        0,
        0,
        0,
        0,
        0,
        0,
        0,
        0,
        0,
        0,
        0,
        0,
        0,
        0,
        0,
        0,
        0,
        0,
        0,
        0,
        0,
        0,
        0,
        0,
        0,
        0,
        0,
        0,
        0,
        0,
        0,
        0,
        0,
        0,
        0,
        0,
        0,
        0,
        0,
        0,
        0,
        0,
        0,
        0,
        0,
        0,
        0,
        0,
        0,
        0,
        0,
        0,
        0,
        0,
        0,
        0,
        0,
        0,
        0,
        0,
        0,
        0,
        0,
        0,
        0,
        0,
        0,
        0,
        0,
        0,
        0,
        0,
        0,
        0,
        0,
        0,
        0,
        0,
        0,
        0,
        0,
        0,
        0,
        0,
        0,
        0,
        0,
        0,
        0,
        0,
        0,
        0,
        0,
        0,
        0,
        0,
        0,
        0,
        0,
        0,
        0,
        0,
        0,
        0,
        0,
        0,
        0,
        0,
        0,
        0,
        0,
        0,
        0,
        0,
        0,
        0,
        0,
        0,
        0,
        0,
        0,
        0,
        0,
        0,
        0,
        0,
        0,
        0,
        0,
        0,
        0,
        0,
        0,
        0,
        0,
        0,
        0,
        0,
        0,
        0,
        0,
        0,
        0,
        0,
        0,
        0,
        0,
        0,
        0,
        0,
        0,
        0,
        0,
        0,
        0,
        0,
        0,
        0,
        0,
        0,
        0,
        0,
        0,
        0,
        0,
        0,
        0,
        0,
        0,
        0,
        0,
        0,
        0,
        0,
        0,
        0,
        0,
        0,
        0,
        0,
        0,
        0,
        0,
        0,
        0,
        0,
        0,
        0,
        0,
        0,
        0,
        0,
        0,
        0,
        0,
        0,
        0,
        0,
        0,
        0,
        0,
        0,
        0,
        0,
        0,
        0,
        0,
        0,
        0,
        0,
        0,
        0,
        0,
        0,
        0,
        0,
        0,
        0,
        0,
        0,
        0,
        0,
        0,
        0,
        0,
        0,
        0,
        0,
        0,
        0,
        0,
        0,
        0,
        0,
        0,
        0,
        0,
        0,
        0,
        0,
        0,
        0,
        0,
        0,
        0,
        0,
        0,
        0,
        0,
        0,
        0,
        0,
        0,
        0,
        0,
        0,
        0,
        0,
        0,
        0,
        0,
        0,
        0,
        0,
        0,
        0,
        0,
        0,
        0,
        0,
        0,
        0,
        0,
        0,
        0,
        0,
        0,
        0,
        0,
        0,
        0,
        0,
        0,
        0,
        0,
        0,
        0,
        0,
        0,
        0,
        0,
        0,
        0,
        0,
        0,
        0,
        0,
        0,
        0,
        0,
        0,
        0,
        0,
        0,
        0,
        0,
        0,
        0,
        0,
        0,
        0,
        0,
        0,
        0,
        0,
        0,
        15,
        15,
        15,
        15,
        15,
        15,
        0,
        0,
        0,
        0,
        0,
        0,
        0,
        0,
        0,
        0,
        0,
        0,
        0,
        0,
        0,
        0,
        0,
        0,
        0,
        0,
        0,
        0,
        0,
        0,
        0,
        0,
        0,
        0,
        0,
        0,
        0,
        0,
        0,
        0,
        15,
        15,
        15,
        15,
        15,
        15,
        0,
        0,
        0,
        0,
        0,
        0,
        0,
        0,
        0,
        0,
        0,
        0,
        0,
        0,
        0,
        0,
        0,
        0,
        0,
        0,
        0,
        0,
        0,
        0,
        0,
        0,
        0,
        0,
        0,
        0,
        0,
        0,
        0,
        0,
        0,
        0,
        0,
        0,
        0,
        0,
        0,
        0,
        0,
        0,
        0,
        0,
        0,
        0,
        0,
        0,
        0,
        0,
        0,
        0,
        0,
        0,
        0,
        0,
        0,
        0,
        0,
        0,
        0,
        0,
        0,
        0,
        0,
        0,
        0,
        0,
        0,
        0,
        0,
        0,
        0,
        0,
        0,
        0,
        0,
        0,
        0,
        0,
        0,
        0,
        0,
        0,
        0,
        0,
        0,
        0,
        0,
        0,
        0,
        0,
        0,
        0,
        0,
        0,
        0,
        0,
        0,
        0,
        0,
        0,
        0,
        0,
        0,
        0,
        0,
        0,
        0,
        0,
        0,
        0,
        0,
        0,
        0,
        0,
        0,
        0,
        0,
        0,
        0,
        0,
        0,
        0,
        0,
        0,
        0,
        0,
        0,
        0,
        0,
        0,
        0,
        0,
        0,
        0,
        0,
        0,
        0,
        0,
        0,
        0,
        0,
        0,
        0,
        0,
        0,
        0,
        0,
        0,
        0,
        0,
        0,
        0,
        0,
        0,
        0,
        0,
        0,
        0,
        0,
        0,
        0,
        0,
        0,
        0,
        0,
        0,
        0,
        0,
        0,
        0,
        0,
        0,
        0,
        0,
        0,
        0,
        0,
        0,
        0,
        0,
        0,
        0,
        0,
        0,
        0,
        0,
        0,
        0,
        0,
        11,
        0,
        0,
        0,
        0,
        0,
        0,
        0,
        0,
        0,
        0,
        0,
        0,
        0,
        0,
        0,
        0,
        0,
        0,
        0,
        0,
        0,
        0,
        0,
        0,
        0,
        0,
        0,
        0,
        0,
        0,
        0,
        0,
        0,
        0,
        0,
        0,
        0,
        0,
        0,
        0,
        0,
        0,
        0,
        0,
        0,
        0,
        0,
        0,
        0,
        0,
        0,
        0,
        0,
        0,
        0,
        0,
        0,
        0,
        0,
        0,
        0,
        0,
        0,
        0,
        0,
        0,
        0,
        0,
        0,
        0,
        0,
        0,
        0,
        0,
        0,
        0,
        0,
        0,
        0,
        0,
        0,
        0,
        0,
        0,
        0,
        0,
        0,
        0,
        0,
        0,
        0,
        0,
        0,
        0,
        0,
        0,
        0,
        0,
        0,
        0,
        0,
        0,
        0,
        0,
        0,
        0,
        0,
        0,
        0,
        0,
        0,
        0,
        0,
        0,
        0,
        0,
        0,
        0,
        0,
        0,
        0,
        0,
        0,
        0,
        0,
        0,
        0,
        0,
        0,
        0,
        0,
        0,
        0,
        0,
        0,
        0,
        0,
        0,
        0,
        0,
        0,
        0,
        0,
        0,
        0,
        0,
        0,
        0,
        0,
        0,
        0,
        0,
        0,
        0,
        0,
        0,
        0,
        0,
        0,
        0,
        0,
        0,
        0,
        0,
        0,
        0,
        0,
        0,
        0,
        0,
        0,
        0,
        0,
        0,
        0,
        0,
        0,
        0,
        0,
        0,
        0,
        0,
        0,
        0,
        0,
        0,
        0,
        0,
        0,
        0,
        0,
        0,
        0,
        0,
        0,
        0,
        0,
        0,
        0,
        0,
        0,
        0,
        0,
        0,
        0,
        0,
        0,
        0,
        0,
        0,
        0,
        0,
        0,
        0,
        0,
        0,
        0,
        0,
        0,
        0,
        0,
        0,
        0,
        0,
        0,
        0,
        0,
        0,
        0,
        0,
        0,
        0,
        0,
        0,
        0,
        0,
        0,
        0,
        0,
        0,
        0,
        0,
        0,
        0,
        0,
        0,
        0,
        0,
        0,
        0,
        0,
        0,
        0,
        0,
        0,
        0,
        0,
        0,
        0,
        0,
        0,
        0,
        0,
        0,
        0,
        0,
        0,
        0,
        0,
        0,
        0,
        0,
        0,
        0,
        0,
        0,
        0,
        0,
        0,
        0,
        0,
        0,
        0,
        0,
        0,
        0,
        0,
        0,
        0,
        0,
        0,
        0,
        0,
        0,
        0,
        0,
        0,
        0,
        0,
        0,
        0,
        0,
        0,
        0,
        0,
        0,
        0,
        0,
        0,
        0,
        0,
        0,
        0,
        0,
        0,
        0,
        0,
        0,
        0,
        0,
        0,
        0,
        0,
        0,
        0,
        0,
        0,
        0,
        0,
        0,
        0,
        0,
        0,
        0,
        0,
        0,
        0,
        0,
        0,
        0,
        0,
        0,
        0,
        0,
        0,
        0,
        0,
        0,
        0,
        0,
        0,
        0,
        0,
        0,
        0,
        0,
        0,
        0,
        0,
        0,
        0,
        0,
        0,
        0,
        0,
        0,
        0,
        0,
        0,
        0,
        0,
        0,
        0,
        0,
        0,
        0,
        0,
        0,
        0,
        0,
        0,
        0,
        0,
        0,
        0,
        0,
        0,
        0,
        0,
        0,
        0,
        0,
        0,
        0,
        0,
        0,
        0,
        0,
        0,
        0,
        0,
        0,
        0,
        0,
        0,
        0,
        0,
        0,
        0,
        0,
        0,
        0,
        0,
        0,
        0,
        0,
        0,
        0,
        0,
        0,
        0,
        0,
        0,
        0,
        0,
        0,
        0,
        0,
        0,
        0,
        0,
        0,
        0,
        0,
        0,
        0,
        0,
        0,
        0,
        0,
        0,
        0,
        0,
        0,
        0,
        0,
        0,
        0,
        0,
        0,
        0,
        0,
        0,
        0,
        0,
        0,
        0,
        0,
        0,
        0,
        0,
        0,
        0,
        0,
        0,
        0,
        0,
        0,
        0,
        0,
        0,
        0,
        0,
        0,
        0,
        0,
        0,
        0,
        0,
        0,
        0,
        0,
        0,
        0,
        0,
        0,
        0,
        0,
        0,
        0,
        0,
        0,
        0,
        0,
        0,
        0,
        0,
        0,
        0,
        0,
        0,
        0,
        0,
        0,
        0,
        0,
        0,
        0,
        0,
        0,
        0,
        0,
        0,
        0,
        0,
        0,
        0,
        0,
        0,
        0,
        0,
        0,
        0,
        0,
        0,
        0,
        0,
        0,
        0,
        0,
        0,
        0,
        0,
        0,
        0,
        0,
        0,
        0,
        0,
        0,
        0,
        0,
        0,
        0,
        0,
        0,
        0,
        0,
        0,
        0,
        0,
        0,
        0,
        0,
        0,
        0,
        0,
        0,
        0,
        0,
        0,
        0,
        0,
        0,
        0,
        0,
        0,
        0,
        0,
        0,
        0,
        0,
        0,
        0,
        0,
        0,
        0,
        0,
        0,
        0,
        0,
        0,
        0,
        0,
        0,
        0,
        0,
        0,
        0,
        0,
        0,
        0,
        0,
        0,
        0,
        0,
        0,
        0,
        0,
        0,
        0,
        0,
        0,
        0,
        0,
        0,
        0,
        0,
        0,
        0,
        0,
        0,
        0,
        0,
        0,
        0,
        0,
        0,
        0,
        0,
        0,
        0,
        0,
        0,
        0,
        0,
        0,
        0,
        0,
        0,
        0,
        0,
        0,
        0,
        0,
        0,
        0,
        0,
        0,
        0,
        0,
        0,
        0,
        0,
        0,
        0,
        0,
        0,
        0,
        0,
        0,
        0,
        0,
        0,
        0,
        0,
        0,
        0,
        0,
        0,
        0,
        0,
        0,
        0,
        0,
        0,
        0,
        0,
        0,
        0,
        0,
        0,
        0,
        0,
        0,
        0,
        0,
        0,
        0,
        0,
        0,
        0,
        0,
        0,
        0,
        0,
        0,
        0,
        0,
        0,
        0,
        0,
        0,
        0,
        0,
        0,
        0,
        0,
        0,
        0,
        0,
        0,
        0,
        0,
        0,
        0,
        0,
        0,
        0,
        0,
        0,
        0,
        0,
        0,
        0,
        0,
        0,
        0,
        0,
        0,
        0,
        0,
        0,
        0,
        0,
        0,
        0,
        0,
        0,
        0,
        0,
        0,
        0,
        0,
        0,
        0,
        0,
        0,
        0,
        0,
        0,
        0,
        0,
        0,
        0,
        0,
        0,
        0,
        0,
        0,
        0,
        0,
        0,
        0,
        0,
        0,
        0,
        0,
        0,
        0,
        11,
        0,
        0,
        0,
        0,
        0,
        11,
        0,
        0,
        0,
        0,
        0,
        0,
        0,
        0,
        0,
        0,
        0,
        0,
        0,
        0,
        0,
        0,
        0,
        0,
        0,
        0,
        0,
        0,
        0,
        0,
        0,
        0,
        0,
        0,
        0,
        0,
        0,
        0,
        0,
        0,
        0,
        0,
        0,
        0,
        0,
        0,
        0,
        0,
        0,
        0,
        0,
        0,
        0,
        0,
        0,
        0,
        0,
        0,
        0,
        0,
        0,
        0,
        0,
        0,
        0,
        0,
        0,
        0,
        0,
        0,
        0,
        0,
        0,
        0,
        0,
        0,
        0,
        0,
        0,
        0,
        0,
        0,
        0,
        0,
        0,
        0,
        0,
        0,
        0,
        0,
        0,
        0,
        0,
        0,
        0,
        0,
        0,
        0,
        0,
        0,
        0,
        0,
        0,
        0,
        0,
        0,
        0,
        0,
        0,
        0,
        0,
        0,
        0,
        0,
        0,
        0,
        0,
        0,
        0,
        0,
        0,
        0,
        0,
        0,
        0,
        0,
        0,
        0,
        0,
        0,
        0,
        0,
        0,
        0,
        0,
        0,
        0,
        0,
        0,
        0,
        0,
        0,
        0,
        0,
        0,
        0,
        0,
        0,
        0,
        0,
        0,
        0,
        0,
        0,
        0,
        0,
        0,
        0,
        0,
        0,
        0,
        0,
        0,
        0,
        0,
        0,
        0,
        0,
        0,
        0,
        0,
        0,
        0,
        0,
        0,
        0,
        0,
        0,
        0,
        0,
        0,
        0,
        0,
        0,
        0,
        0,
        0,
        0,
        0,
        0,
        0,
        0,
        0,
        0,
        0,
        0,
        0,
        0,
        0,
        0,
        0,
        0,
        0,
        0,
        0,
        0,
        0,
        0,
        0,
        0,
        0,
        0,
        0,
        0,
        0,
        0,
        0,
        0,
        0,
        0,
        0,
        0,
        0,
        0,
        0,
        0,
        0,
        0,
        0,
        0,
        0,
        0,
        0,
        0,
        0,
        0,
        0,
        0,
        0,
        0,
        11,
        0,
        0,
        0,
        0,
        0,
        0,
        0,
        0,
        0,
        0,
        0,
        0,
        0,
        0,
        0,
        0,
        0,
        0,
        0,
        0,
        0,
        0,
        0,
        0,
        0,
        0,
        0,
        0,
        0,
        0,
        0,
        0,
        0,
        0,
        0,
        0,
        0,
        0,
        0,
        0,
        0,
        0,
        0,
        0,
        0,
        0,
        0,
        0,
        0,
        0,
        0,
        0,
        0,
        0,
        0,
        0,
        0,
        0,
        0,
        0,
        0,
        0,
        0,
        0,
        0,
        0,
        0,
        0,
        0,
        0,
        0,
        0,
        0,
        0,
        0,
        0,
        0,
        0,
        0,
        0,
        0,
        0,
        0,
        0,
        0,
        0,
        0,
        0,
        0,
        0,
        0,
        0,
        0,
        0,
        0,
        0,
        0,
        0,
        0,
        0,
        0,
        0,
        0,
        0,
        0,
        0,
        0,
        0,
        0,
        0,
        0,
        0,
        0,
        0,
        0,
        0,
        0,
        0,
        0,
        0,
        0,
        0,
        0,
        0,
        0,
        0,
        0,
        0,
        0,
        0,
        0,
        0,
        0,
        0,
        0,
        0,
        0,
        0,
        0,
        0,
        0,
        0,
        0,
        0,
        0,
        0,
        0,
        0,
        0,
        0,
        0,
        0,
        0,
        0,
        0,
        0,
        0,
        0,
        0,
        0,
        0,
        0,
        0,
        0,
        0,
        0,
        0,
        0,
        0,
        0,
        0,
        0,
        0,
        0,
        0,
        0,
        0,
        0,
        0,
        0,
        0,
        0,
        0,
        0,
        0,
        0,
        0,
        0,
        0,
        0,
        0,
        0,
        0,
        0,
        0,
        0,
        0,
        0,
        0,
        0,
        0,
        0,
        0,
        0,
        0,
        0,
        0,
        0,
        0,
        0,
        0,
        0,
        0,
        0,
        0,
        0,
        0,
        0,
        0,
        0,
        0,
        0,
        0,
        0,
        0,
        0,
        0,
        0,
        0,
        0,
        0,
        0,
        0,
        0,
        0,
        0,
        0,
        0,
        0,
        0,
        0,
        0,
        0,
        0,
        0,
        0,
        0,
        0,
        0,
        0,
        0,
        0,
        0,
        0,
        0,
        0,
        0,
        0,
        0,
        0,
        0,
        0,
        0,
        0,
        0,
        0,
        0,
        0,
        0,
        0,
        0,
        0,
        0,
        0,
        0,
        0,
        0,
        0,
        0,
        0,
        0,
        0,
        0,
        11,
        0,
        0,
        0,
        0,
        0,
        0,
        0,
        0,
        0,
        0,
        0,
        0,
        0,
        0,
        0,
        0,
        0,
        0,
        0,
        0,
        0,
        0,
        0,
        0,
        0,
        0,
        0,
        0,
        0,
        0,
        0,
        0,
        0,
        0,
        0,
        0,
        0,
        0,
        0,
        0,
        0,
        0,
        0,
        0,
        0,
        0,
        0,
        0,
        0,
        0,
        0,
        0,
        0,
        0,
        0,
        0,
        0,
        0,
        0,
        0,
        0,
        0,
        0,
        0,
        0,
        0,
        0,
        0,
        0,
        0,
        0,
        0,
        0,
        0,
        0,
        0,
        0,
        0,
        0,
        0,
        0,
        0,
        0,
        0,
        0,
        0,
        0,
        0,
        0,
        0,
        0,
        0,
        0,
        0,
        0,
        0,
        0,
        0,
        0,
        0,
        0,
        0,
        0,
        0,
        0,
        0,
        0,
        0,
        0,
        0,
        0,
        0,
        0,
        0,
        0,
        0,
        0,
        0,
        0,
        0,
        0,
        0,
        0,
        0,
        0,
        0,
        0,
        0,
        0,
        0,
        0,
        0,
        0,
        0,
        0,
        0,
        0,
        0,
        0,
        0,
        0,
        0,
        0,
        0,
        0,
        0,
        0,
        0,
        0,
        0,
        0,
        0,
        0,
        0,
        0,
        0,
        0,
        0,
        0,
        0,
        0,
        0,
        0,
        0,
        0,
        0,
        0,
        0,
        0,
        0,
        0,
        0,
        0,
        0,
        0,
        0,
        0,
        0,
        0,
        0,
        0,
        0,
        0,
        0,
        0,
        0,
        0,
        0,
        0,
        0,
        0,
        0,
        0,
        15,
        15,
        15,
        15,
        15,
        0,
        0,
        0,
        0,
        0,
        0,
        0,
        0,
        0,
        0,
        0,
        0,
        0,
        0,
        0,
        0,
        0,
        0,
        0,
        0,
        0,
        0,
        0,
        0,
        0,
        0,
        0,
        0,
        0,
        0,
        0,
        0,
        0,
        0,
        0,
        15,
        15,
        15,
        15,
        15,
        0,
        0,
        0,
        0,
        0,
        0,
        0,
        0,
        0,
        0,
        0,
        0,
        0,
        0,
        0,
        0,
        0,
        0,
        0,
        0,
        0,
        0,
        0,
        0,
        0,
        0,
        0,
        0,
        0,
        0,
        0,
        0,
        0,
        0,
        0,
        15,
        15,
        15,
        15,
        15,
        0,
        0,
        0,
        0,
        0,
        0,
        0,
        0,
        0,
        0,
        0,
        0,
        0,
        0,
        0,
        0,
        0,
        0,
        0,
        0,
        0,
        0,
        0,
        0,
        0,
        0,
        0,
        0,
        0,
        0,
        0,
        0,
        0,
        0,
        0,
        0,
        0,
        0,
        0,
        0,
        0,
        0,
        0,
        0,
        0,
        0,
        0,
        0,
        0,
        0,
        0,
        0,
        0,
        0,
        0,
        0,
        0,
        0,
        0,
        0,
        0,
        0,
        0,
        0,
        0,
        0,
        0,
        0,
        0,
        0,
        0,
        0,
        0,
        0,
        0,
        0,
        0,
        0,
        0,
        0,
        0,
        0,
        0,
        0,
        0,
        0,
        0,
        0,
        0,
        0,
        0,
        0,
        0,
        0,
        0,
        0,
        0,
        0,
        0,
        0,
        0,
        0,
        0,
        0,
        0,
        0,
        0,
        0,
        0,
        0,
        0,
        0,
        0,
        0,
        0,
        11,
        0,
        0,
        0,
        0,
        0,
        0,
        0,
        0,
        0,
        0,
        0,
        0,
        0,
        0,
        0,
        0,
        0,
        0,
        0,
        0,
        0,
        0,
        0,
        0,
        0,
        0,
        0,
        0,
        0,
        0,
        0,
        0,
        0,
        0,
        0,
        0,
        0,
        0,
        18,
        18,
        18,
        18,
        18,
        18,
        18,
        18,
        18,
        18,
        0,
        0,
        0,
        0,
        0,
        0,
        0,
        0,
        0,
        0,
        0,
        0,
        0,
        0,
        0,
        0,
        0,
        0,
        0,
        0,
        0,
        0,
        0,
        0,
        0,
        0,
        0,
        0,
        0,
        0,
        0,
        0,
        0,
        0,
        0,
        0,
        0,
        0,
        0,
        0,
        0,
        0,
        0,
        0,
        0,
        0,
        0,
        0,
        0,
        0,
        0,
        0,
        0,
        0,
        0,
        0,
        0,
        0,
        0,
        0,
        0,
        0,
        0,
        0,
        0,
        0,
        0,
        0,
        0,
        0,
        0,
        0,
        0,
        0,
        0,
        0,
        0,
        0,
        0,
        0,
        0,
        0,
        0,
        0,
        0,
        0,
        0,
        0,
        0,
        0,
        0,
        0,
        0,
        0,
        0,
        0,
        0,
        0,
        0,
        0,
        0,
        0,
        0,
        0,
        0,
        0,
        0,
        0,
        0,
        0,
        0,
        0,
        0,
        0,
        0,
        0,
        0,
        0,
        0,
        0,
        0,
        0,
        0,
        0,
        0,
        0,
        0,
        0,
        0,
        0,
        0,
        0,
        0,
        0,
        0,
        0,
        0,
        0,
        0,
        0,
        0,
        0,
        0,
        0,
        0,
        0,
        0,
        0,
        0,
        0,
        0,
        0,
        0,
        0,
        0,
        0,
        0,
        0,
        0,
        0,
        0,
        0,
        0,
        0,
        0,
        0,
        0,
        0,
        0,
        0,
        0,
        0,
        0,
        0,
        0,
        0,
        0,
        0,
        0,
        0,
        0,
        0,
        0,
        0,
        0,
        0,
        0,
        0,
        0,
        0,
        0,
        0,
        0,
        0,
        0,
        0,
        0,
        0,
        0,
        0,
        0,
        0,
        0,
        0,
        0,
        0,
        0,
        0,
        0,
        0,
        0,
        0,
        0,
        0,
        0
      ],
      "encoding": "csv"
    },
    {
      "id": 3,
      "name": "objects",
      "type": "objectgroup",
      "visible": true,
      "opacity": 1,
      "x": 0,
      "y": 0,
      "objects": [
        {
          "name": "spawn",
          "type": "spawn",
          "x": 320,
          "y": 1180,
          "width": 0,
          "height": 0,
          "properties": [
            {
              "name": "heading",
              "type": "float",
              "value": 0
            }
          ],
          "id": 1,
          "rotation": 0,
          "visible": true
        },
        {
          "name": "SHERIFF",
          "type": "building",
          "x": 176,
          "y": 640,
          "width": 96,
          "height": 80,
          "properties": [
            {
              "name": "target",
              "type": "string",
              "value": "sheriff"
            },
            {
              "name": "value",
              "type": "int",
              "value": 400
            },
            {
              "name": "pip",
              "type": "string",
              "value": "amber"
            }
          ],
          "id": 2,
          "rotation": 0,
          "visible": true
        },
        {
          "name": "YARD",
          "type": "building",
          "x": 448,
          "y": 720,
          "width": 128,
          "height": 96,
          "properties": [
            {
              "name": "target",
              "type": "string",
              "value": "yard"
            },
            {
              "name": "value",
              "type": "int",
              "value": 500
            },
            {
              "name": "pip",
              "type": "string",
              "value": "rust"
            }
          ],
          "id": 3,
          "rotation": 0,
          "visible": true
        },
        {
          "name": "PLANT",
          "type": "building",
          "x": 248,
          "y": 72,
          "width": 144,
          "height": 112,
          "properties": [
            {
              "name": "target",
              "type": "string",
              "value": "plant"
            },
            {
              "name": "value",
              "type": "int",
              "value": 700
            },
            {
              "name": "pip",
              "type": "string",
              "value": "cyan"
            }
          ],
          "id": 4,
          "rotation": 0,
          "visible": true
        },
        {
          "name": "shack_w1",
          "type": "building",
          "x": 64,
          "y": 900,
          "width": 64,
          "height": 48,
          "properties": [
            {
              "name": "target",
              "type": "string",
              "value": "none"
            },
            {
              "name": "value",
              "type": "int",
              "value": 50
            }
          ],
          "id": 5,
          "rotation": 0,
          "visible": true
        },
        {
          "name": "shack_w2",
          "type": "building",
          "x": 80,
          "y": 500,
          "width": 80,
          "height": 48,
          "properties": [
            {
              "name": "target",
              "type": "string",
              "value": "none"
            },
            {
              "name": "value",
              "type": "int",
              "value": 65
            }
          ],
          "id": 6,
          "rotation": 0,
          "visible": true
        },
        {
          "name": "shack_w3",
          "type": "building",
          "x": 48,
          "y": 300,
          "width": 64,
          "height": 64,
          "properties": [
            {
              "name": "target",
              "type": "string",
              "value": "none"
            },
            {
              "name": "value",
              "type": "int",
              "value": 80
            }
          ],
          "id": 7,
          "rotation": 0,
          "visible": true
        },
        {
          "name": "shack_e1",
          "type": "building",
          "x": 448,
          "y": 1000,
          "width": 72,
          "height": 48,
          "properties": [
            {
              "name": "target",
              "type": "string",
              "value": "none"
            },
            {
              "name": "value",
              "type": "int",
              "value": 55
            }
          ],
          "id": 8,
          "rotation": 0,
          "visible": true
        },
        {
          "name": "shack_e2",
          "type": "building",
          "x": 480,
          "y": 560,
          "width": 64,
          "height": 40,
          "properties": [
            {
              "name": "target",
              "type": "string",
              "value": "none"
            },
            {
              "name": "value",
              "type": "int",
              "value": 40
            }
          ],
          "id": 9,
          "rotation": 0,
          "visible": true
        },
        {
          "name": "jersey_yard_mouth",
          "type": "blocker",
          "x": 400,
          "y": 780,
          "width": 48,
          "height": 16,
          "properties": [
            {
              "name": "kind",
              "type": "string",
              "value": "jersey"
            },
            {
              "name": "when",
              "type": "string",
              "value": "start"
            }
          ],
          "id": 10,
          "rotation": 0,
          "visible": true
        },
        {
          "name": "dump_a",
          "type": "blocker",
          "x": 456,
          "y": 840,
          "width": 40,
          "height": 24,
          "properties": [
            {
              "name": "kind",
              "type": "string",
              "value": "dump"
            },
            {
              "name": "when",
              "type": "string",
              "value": "start"
            }
          ],
          "id": 11,
          "rotation": 0,
          "visible": true
        },
        {
          "name": "dump_b",
          "type": "blocker",
          "x": 520,
          "y": 840,
          "width": 40,
          "height": 24,
          "properties": [
            {
              "name": "kind",
              "type": "string",
              "value": "dump"
            },
            {
              "name": "when",
              "type": "string",
              "value": "start"
            }
          ],
          "id": 12,
          "rotation": 0,
          "visible": true
        },
        {
          "name": "concrete_south",
          "type": "blocker",
          "x": 256,
          "y": 1100,
          "width": 80,
          "height": 24,
          "properties": [
            {
              "name": "kind",
              "type": "string",
              "value": "concrete"
            },
            {
              "name": "when",
              "type": "string",
              "value": "start"
            }
          ],
          "id": 13,
          "rotation": 0,
          "visible": true
        },
        {
          "name": "concrete_mid",
          "type": "blocker",
          "x": 280,
          "y": 400,
          "width": 80,
          "height": 24,
          "properties": [
            {
              "name": "kind",
              "type": "string",
              "value": "concrete"
            },
            {
              "name": "when",
              "type": "string",
              "value": "start"
            }
          ],
          "id": 14,
          "rotation": 0,
          "visible": true
        },
        {
          "name": "concrete_plant",
          "type": "blocker",
          "x": 260,
          "y": 200,
          "width": 96,
          "height": 32,
          "properties": [
            {
              "name": "kind",
              "type": "string",
              "value": "concrete"
            },
            {
              "name": "when",
              "type": "string",
              "value": "start"
            }
          ],
          "id": 15,
          "rotation": 0,
          "visible": true
        },
        {
          "name": "jersey_40s_a",
          "type": "blocker",
          "x": 248,
          "y": 1000,
          "width": 48,
          "height": 16,
          "properties": [
            {
              "name": "kind",
              "type": "string",
              "value": "jersey"
            },
            {
              "name": "when",
              "type": "string",
              "value": "t40"
            }
          ],
          "id": 16,
          "rotation": 0,
          "visible": true
        },
        {
          "name": "jersey_40s_b",
          "type": "blocker",
          "x": 344,
          "y": 860,
          "width": 48,
          "height": 16,
          "properties": [
            {
              "name": "kind",
              "type": "string",
              "value": "jersey"
            },
            {
              "name": "when",
              "type": "string",
              "value": "t40"
            }
          ],
          "id": 17,
          "rotation": 0,
          "visible": true
        },
        {
          "name": "jersey_40s_c",
          "type": "blocker",
          "x": 248,
          "y": 480,
          "width": 56,
          "height": 16,
          "properties": [
            {
              "name": "kind",
              "type": "string",
              "value": "jersey"
            },
            {
              "name": "when",
              "type": "string",
              "value": "t40"
            }
          ],
          "id": 18,
          "rotation": 0,
          "visible": true
        },
        {
          "name": "dump_40s",
          "type": "blocker",
          "x": 300,
          "y": 720,
          "width": 40,
          "height": 24,
          "properties": [
            {
              "name": "kind",
              "type": "string",
              "value": "dump"
            },
            {
              "name": "when",
              "type": "string",
              "value": "t40"
            }
          ],
          "id": 19,
          "rotation": 0,
          "visible": true
        },
        {
          "name": "excavator_primary",
          "type": "marker",
          "x": 288,
          "y": 520,
          "width": 20,
          "height": 36,
          "properties": [
            {
              "name": "kind",
              "type": "string",
              "value": "excavator"
            },
            {
              "name": "heading",
              "type": "float",
              "value": 3.14159265
            }
          ],
          "id": 20,
          "rotation": 0,
          "visible": true
        },
        {
          "name": "excavator_fallback",
          "type": "marker",
          "x": 288,
          "y": 360,
          "width": 20,
          "height": 36,
          "properties": [
            {
              "name": "kind",
              "type": "string",
              "value": "excavator_fallback"
            },
            {
              "name": "heading",
              "type": "float",
              "value": 3.14159265
            }
          ],
          "id": 21,
          "rotation": 0,
          "visible": true
        }
      ],
      "draworder": "topdown"
    }
  ],
  "properties": [
    {
      "name": "lotW",
      "type": "int",
      "value": 640
    },
    {
      "name": "lotH",
      "type": "int",
      "value": 1280
    },
    {
      "name": "tile",
      "type": "int",
      "value": 16
    },
    {
      "name": "collision",
      "type": "string",
      "value": "objects-aabb-not-tiles"
    },
    {
      "name": "authority",
      "type": "string",
      "value": "lot.go literals stay source of truth until loader lands"
    }
  ]
}